X:11
T:Lady Isabel and the Elf Knight
C:Trad
B:Bronson
T:The Outlandish Knight
O:Sharp MSS., 247I/. Sung by George Hartwell, Idlicote, April 29, I9I0.
M:6/8
L:1/8
K:Cmix
D | D2 G GAG | F2 E C2 SF |
GAB cBA | G3-G2 SF | "(a)"GAB c2 B |
AAG F2 SG | G2 G FED | C3-C2 |]
%Alternate endings
%"(a)"GAB c2 c | cAF G2 E | GAG FED | C3-C2 |]
%"(a)"GAB c2 c | G2 G A2 G | GAG F2 E | C3-C2 |]
